ui/common/assets/svgs/star-outline.svg

<svg width="24" height="24" viewBox="0 0 24 24" fill="none" xmlns="http://www.w3.org/2000/svg">
<path d="M12.0008 17.75L5.82881 20.995L7.00781 14.122L2.00781 9.25495L8.90781 8.25495L11.9938 2.00195L15.0798 8.25495L21.9798 9.25495L16.9798 14.122L18.1588 20.995L12.0008 17.75Z" stroke="white" stroke-width="2" stroke-linecap="round" stroke-linejoin="round"/>
</svg>

<svg  xmlns="http://www.w3.org/2000/svg"  width="24"  height="24"  viewBox="0 0 24 24"  fill="none"  stroke="currentColor"  stroke-width="2"  stroke-linecap="round"  stroke-linejoin="round"  class="icon icon-tabler icons-tabler-outline icon-tabler-star"><path stroke="none" d="M0 0h24v24H0z" fill="none"/><path d="M12 17.75l-6.172 3.245l1.179 -6.873l-5 -4.867l6.9 -1l3.086 -6.253l3.086 6.253l6.9 1l-5 4.867l1.179 6.873z" /></svg>
